X: 2
T:Hannah Onestep
% Nottingham Music Database
S:Pauline Wilson, via PR
M:4/4
L:1/4
K:G
"G"D4|"D7"B3F|"G"AG FG-|G3F|AG FA-|AG E2|"Am"F4-|"D7"F4|"Am"E4|
"E7"c3^G|"Am"BA ^GA-|A3E|"D7"GF ^EF-|FA2F|"G"ED B,D-|"D7"D4||
"G"D4|"D7"B3F|"G"AG FG-|G3G|"G7"AG FG-|GA B2|"C"A4-|A4|"Am"cB Ac-|
"D7"cB A2|"G"BA GB-|"Em"BA G2|"Am"GE GB-|"D7"B2 B2|"G"G4-|G4||<end>
<start>
